v2/perps-v2/ui/public/asset-icons/AAVE.svg

<svg width="42" height="42" viewBox="0 0 42 42" fill="none" xmlns="http://www.w3.org/2000/svg">
<path d="M21 42C32.598 42 42 32.598 42 21C42 9.40202 32.598 0 21 0C9.40202 0 0 9.40202 0 21C0 32.598 9.40202 42 21 42Z" fill="url(#paint0_linear_5735_50589)"/>
<path d="M30.1523 29.2833L23.0903 12.2329C22.6913 11.3519 22.1013 10.92 21.3205 10.92H20.6959C19.9151 10.92 19.3251 11.3519 18.9261 12.2329L15.8551 19.6614H13.5298C13.1951 19.6626 12.8743 19.7958 12.6371 20.0319C12.4 20.268 12.2656 20.588 12.2632 20.9224V20.9397C12.2656 21.2742 12.4 21.5942 12.6371 21.8303C12.8743 22.0664 13.1951 22.1995 13.5298 22.2008H14.7789L11.8468 29.2833C11.7913 29.4387 11.762 29.6022 11.76 29.7672C11.76 30.1645 11.8815 30.4755 12.107 30.7173C12.3326 30.9592 12.6449 31.0799 13.044 31.0799C13.3061 31.0764 13.5606 30.9919 13.7726 30.838C13.9982 30.6826 14.1543 30.458 14.2758 30.1989L17.5031 22.2005H19.7414C20.0762 22.1992 20.397 22.0661 20.6341 21.83C20.8713 21.5939 21.0056 21.2739 21.0081 20.9394V20.9049C21.0056 20.5704 20.8713 20.2504 20.6341 20.0143C20.397 19.7782 20.0762 19.6451 19.7414 19.6438H18.5443L21.0082 13.5112L27.7231 30.1989C27.8446 30.458 28.0008 30.6828 28.2263 30.8381C28.4384 30.992 28.693 31.0765 28.9551 31.08C29.3542 31.08 29.6665 30.9591 29.8921 30.7172C30.1177 30.4753 30.2391 30.1644 30.2391 29.7671C30.2457 29.6014 30.216 29.4364 30.1523 29.2833Z" fill="white"/>
<defs>
<linearGradient id="paint0_linear_5735_50589" x1="38.094" y1="9.534" x2="6.846" y2="35.826" gradientUnits="userSpaceOnUse">
<stop stop-color="#B6509E"/>
<stop offset="1" stop-color="#2EBAC6"/>
</linearGradient>
</defs>
</svg>

<svg width="42" height="42" fill="none" xmlns="http://www.w3.org/2000/svg"><path d="M21 42c11.598 0 21-9.402 21-21S32.598 0 21 0 0 9.402 0 21s9.402 21 21 21Z" fill="url(#a)"/><path d="m30.152 29.283-7.062-17.05c-.399-.881-.989-1.313-1.77-1.313h-.624c-.78 0-1.37.432-1.77 1.313l-3.07 7.428H13.53a1.272 1.272 0 0 0-1.267 1.261v.018a1.27 1.27 0 0 0 1.267 1.26h1.249l-2.932 7.083a1.492 1.492 0 0 0-.087.484c0 .398.122.709.347.95.226.242.538.363.937.363.262-.004.517-.088.729-.242.225-.155.381-.38.503-.64l3.227-7.997h2.238a1.272 1.272 0 0 0 1.267-1.262v-.034a1.27 1.27 0 0 0-1.267-1.261h-1.197l2.464-6.133L27.723 30.2c.122.259.278.484.503.64.212.153.467.238.73.241.398 0 .71-.12.936-.363.226-.242.347-.553.347-.95a1.141 1.141 0 0 0-.087-.484Z" fill="#fff"/><defs><linearGradient id="a" x1="38.094" y1="9.534" x2="6.846" y2="35.826" gradientUnits="userSpaceOnUse"><stop stop-color="#B6509E"/><stop offset="1" stop-color="#2EBAC6"/></linearGradient></defs></svg>
